X: 716
T: Ah! Sure Such A Pair
R: jig
M: 6/8
K: Gmajor
|:G|G>AG B>cB|d>ed (g<b)a|gdB cde|dgB A2 G|
G>AG B>cB|dba g2 d|gdB cde|dBG A2:|
|:G|B2 c d2 g|baf gdc|B2 b bag|f2 g adc|
BAB cBc|dba g2 d|gdB cde|dBG A2:|

